X:1
T:What Will You Do with Jesus?
T:What Will You Do with Jesus?
T:John Otho Beall
T:William F. Allen, 1910
T:Public Domain Courtesy of the Cyber Hymnal™
C:John Otho Beall
Z:Public Domain
Z:Courtesy of the Cyber Hymnal™
%%score ( 1 2 ) ( 3 4 )
L:1/8
Q:1/4=107
M:4/4
K:Ab
V:1 treble 
V:2 treble 
V:3 bass 
V:4 bass 
V:1
 [CE]2 | [Ec]3 [Ec] [Fd]2 [Ec]2 | [Dc]2 [DB]2 [DF]3 [DF] | [DG]2 [CA]2 [Ec]3 [DB] | %4
w: 1.~The|Lord on tri- al|stands to- day, A-|waits to hear what|
w: 2.~Our|Sav- ior will be|tried by all, Just|like He was in|
w: 3.~O|why not en- ter|now His fold? He|pleads for you, both|
w: 4.~Will|you still lon- ger|Him de- ny, And|as of old, con-|
 [DB]2 [CA]2 [CE]3 [CE] | [Ec]2 [Ec]2 [Fd]3 [Ec] | [=Dc]2 [DB]2 [DF]3 [DF] | %7
w: you will say; You|treat none else in|such a way— What|
w: Pi- late’s hall; What|is your an- swer|to this call— What|
w: young and old; His|love for you has|oft been told— What|
w: demn to die? Or|will you say, “Lord,|here am I”? That’s|
 [DG]2 [CA]2 [Ec]3 [CA] | [DB]2 [CA]4 ||"^Refrain" [CE]2 | [Ec]3 [Ec] [Fd]2 [Ec]2 | %11
w: will you do with|Je- sus?|||
w: will you do with|Je- sus?|||
w: will you do with|Je- sus?|||
w: what I’ll do with|Je- sus!|||
 [Dc]2 [DF]4 [=DF]2 | [EB]3 [E=A]!>(! [Ec]2!>)! [DB]2 |!>(! !fermata!E6!>)! !fermata![CE]2 | %14
w: |||
w: |||
w: |||
w: |||
 [Ec]3 [Ec] [Fd]2 [Ec]2 | [=Dc]2 [DF]4 [DF]2 | [DA]3 [CA] !fermata![Ec]2 [DB]2 | !fermata![CA]6 |] %18
w: ||||
w: ||||
w: ||||
w: ||||
V:2
 x2 | x8 | x8 | x8 | x8 | x8 | x8 | x8 | x6 || x2 | x8 | x8 | x8 | (B,2 C2 D2) x2 | x8 | x8 | x8 | %17
 x6 |] %18
V:3
 [A,,A,]2 | [A,,A,]3 [A,,A,] [A,,A,]2 [A,,A,]2 | [D,F,]2 [D,F,]2 [D,B,]3 [D,B,] | %3
w: |||
 [E,B,]2 [E,A,]2 [E,A,]3 [E,G,] | [A,,A,]2 [A,,A,]2 [A,,A,]3 [A,,A,] | %5
w: ||
 [A,,A,]2 [A,,A,]2 [A,,A,]3 [A,,A,] | [B,,A,]2 [B,,A,]2 [B,,A,]3 [B,,A,] | %7
w: ||
 [E,B,]2 [E,A,]2 [E,A,]3 [E,A,] | [E,G,]2 [A,,A,]4 || [A,,A,]2 | %10
w: ||What|
 [A,,A,]3 [A,,A,] [A,,A,]2 [A,,A,]2 | [D,F,]2 [D,B,]4 [F,A,]2 | [E,G,]3 [E,^F,] [E,A,]2 [E,G,]2 | %13
w: will you do with|Je- sus? Will|you be false or|
 (!fermata!G,2 A,2 !fermata!B,2) [A,,A,]2 | [A,,A,]3 [A,,A,] [A,,A,]2 [A,,A,]2 | %15
w: true? * * Shall|friends one day be|
 [B,,A,]2 [B,,B,]4 [B,,B,]2 | [E,B,]3 [E,A,] !fermata![E,A,]2 [E,G,]2 | !fermata![A,,A,]6 |] %18
w: ask- ing, “What|will He do with|you?”|
V:4
 x2 | x8 | x8 | x8 | x8 | x8 | x8 | x8 | x6 || x2 | x8 | x8 | x8 | E,6 x2 | x8 | x8 | x8 | x6 |] %18

